X: 2011
T: Boy In The Bush
B: steve tunes
M:9/8
R: slip jig
Q: 3/8=91
K:Dmix
V:1 
"D"FGA AFA c2A|"D"BAG FAF "C"GED|"D"FGA AFA d2A|"D"dfe dcA "C"GED:|
|:"D"d^cd efd "C"=c2A|~"D"d3 faf ~"C"g3|aba ged c2A|"D"BAG FAF "C"GED:|
|:"D"FGA AFd AFd|"D"AFd AFA "C"GED|"D"FGA AFA c2A|"D"BAG FAF "C"GED:|
|:~"D"D3 ~D3 "C"c3|c2B c2A GEA|~"D"D3 ~D3 "C"d2A|"D"dfe dcA "C"GED:|
|:"D"d^cd efd "C"=c2A|"D"d^B/c/d faf "C"~g3|"D"aba ged "C"c2A|"C"BAG F/G/AF "C"GED:|
% abcbook-tune_id 629fde0f0e6da04b1a98ed0d


% abcbook-boost 0
% abcbook-tablature 
% abcbook-transpose 
% abcbook-lastupdated 1654670250451
% abcbook-soundfonts 
% abcbook-repeats 3


